Apricity Icons/16/panel/megawarning.svg

<svg xmlns="http://www.w3.org/2000/svg" width="16" height="16" version="1.1">
 <defs>
  <style id="current-color-scheme" type="text/css">
   .ColorScheme-Text { color:#dfdfdf; } .ColorScheme-Highlight { color:#4285f4; }
  </style>
 </defs>
 <g transform="translate(-3,-3)">
  <path style="fill:currentColor" class="ColorScheme-Text" d="M 8 1 A 7 7 0 0 0 1 8 A 7 7 0 0 0 8 15 A 7 7 0 0 0 8.0058594 15 A 5 5 0 0 1 7 12 A 5 5 0 0 1 7.4199219 10 L 7 10 L 6 8.5 L 6 11 L 4 11 L 4 5 L 6 5 L 8 8 L 10 5 L 12 5 L 12 7 A 5 5 0 0 1 15 8.0078125 A 7 7 0 0 0 15 8 A 7 7 0 0 0 8 1 z" transform="translate(3,3)"/>
 </g>
 <path style="fill:currentColor" class="ColorScheme-Highlight" d="m 12.279037,8.0080492 c -0.768533,-0.054321 -1.561885,0.113119 -2.2792967,0.527344 -1.9132,1.1046001 -2.567391,3.5516438 -1.462891,5.4648438 1.1045,1.9131 3.5497907,2.567491 5.4628907,1.462891 1.9132,-1.1046 2.569344,-3.549691 1.464844,-5.462891 C 14.774271,8.8045492 13.559926,8.0985862 12.279037,8.0080492 Z m -1.693359,1.8710941 1.414062,1.4140627 1.414062,-1.4140627 0.707032,0.7070317 -1.414063,1.414062 1.414063,1.414062 -0.707032,0.707032 L 11.99974,12.707268 10.585678,14.121331 9.8786463,13.414299 11.292709,12.000237 9.8786463,10.586175 10.585678,9.8791433 Z"/>
</svg>

<svg xmlns="http://www.w3.org/2000/svg" width="16" height="16"><path d="M8 1a7 7 0 0 0-7 7 7 7 0 0 0 7 7 7 7 0 0 0 .006 0A5 5 0 0 1 7 12a5 5 0 0 1 .42-2H7L6 8.5V11H4V5h2l2 3 2-3h2v2a5 5 0 0 1 3 1.008A7 7 0 0 0 15 8a7 7 0 0 0-7-7z" fill="currentColor" color="#dfdfdf"/><path d="M12.279 8.008a4 4 0 1 0 0 0zm-1.693 1.871L12 11.293l1.414-1.414.707.707L12.707 12l1.414 1.414-.707.707L12 12.707l-1.414 1.414-.707-.707L11.293 12l-1.414-1.414.707-.707z" fill="currentColor" color="#5294e2"/></svg>
